svgs/sharp-regular/clipboard-list-check.svg

<svg xmlns="http://www.w3.org/2000/svg" viewBox="0 0 384 512"><!--! Font Awesome Pro 6.6.0 by @fontawesome - https://fontawesome.com License - https://fontawesome.com/license (Commercial License) Copyright 2024 Fonticons, Inc. --><path d="M336 64l-32 0-33.6 0C263 27.5 230.7 0 192 0s-71 27.5-78.4 64L80 64 48 64 0 64l0 48L0 464l0 48 48 0 288 0 48 0 0-48 0-352 0-48-48 0zM80 112l0 48 112 0 112 0 0-48 32 0 0 352L48 464l0-352 32 0zm88-32a24 24 0 1 1 48 0 24 24 0 1 1 -48 0zm3.3 155.3L182.6 224 160 201.4l-11.3 11.3L112 249.4 99.3 236.7 88 225.4 65.4 248l11.3 11.3 24 24L112 294.6l11.3-11.3 48-48zM192 256l0 32 16 0 80 0 16 0 0-32-16 0-80 0-16 0zm-16 96l-16 0 0 32 16 0 112 0 16 0 0-32-16 0-112 0zm-64 40a24 24 0 1 0 0-48 24 24 0 1 0 0 48z"/></svg>

<svg xmlns="http://www.w3.org/2000/svg" viewBox="0 0 384 512"><!--! Font Awesome Pro 6.4.2 by @fontawesome - https://fontawesome.com License - https://fontawesome.com/license (Commercial License) Copyright 2023 Fonticons, Inc. --><path d="M336 64H304 270.4C263 27.5 230.7 0 192 0s-71 27.5-78.4 64H80 48 0v48V464v48H48 336h48V464 112 64H336zM80 112v48H192 304V112h32V464H48V112H80zm88-32a24 24 0 1 1 48 0 24 24 0 1 1 -48 0zm3.3 155.3L182.6 224 160 201.4l-11.3 11.3L112 249.4 99.3 236.7 88 225.4 65.4 248l11.3 11.3 24 24L112 294.6l11.3-11.3 48-48zM192 256v32h16 80 16V256H288 208 192zm-16 96H160v32h16H288h16V352H288 176zm-64 40a24 24 0 1 0 0-48 24 24 0 1 0 0 48z"/></svg>
